icons/Color/scalable/window-close.svg

<svg height="16" viewBox="0 0 16 16" width="16" xmlns="http://www.w3.org/2000/svg"><g transform="translate(0 -1036.3622)"><path d="m2.5859375 1c-1.4445624.039061-2.13161581 1.8449876-1.0722656 2.8476562l4.2148437 4.0859376.0996094.0976562-.03125.03125-4.296875 4.183594c-1.51372932 1.5566.7480915 3.781109 2.2617188 2.224609l4.3964843-4.169922 4.0878909 4.199219c1.556547 1.513652 3.781158-.748066 2.224609-2.261719l-4.044922-4.2656248.03125-.03125 4.072266-4.1875c.310975-.3107999.48132-.7326687.470703-1.1679687-.0388-1.4446-1.845003-2.13166563-2.847656-1.0722656l-4.0546878 4.1835937-.1582031-.1542968-4.1855469-4.0722657c-.3107221-.3111475-.7326993-.48113949-1.1679687-.4707031z" transform="matrix(1.00000000494 -.00000000189 .00000000738 .99999999794 -.00000125537 1036.3621530006)"/><path d="m0 1036.3622h16v16h-16z" fill="none"/></g></svg>

<?xml version="1.0" encoding="UTF-8" standalone="no"?>
<svg
   xmlns:dc="http://purl.org/dc/elements/1.1/"
   xmlns:cc="http://creativecommons.org/ns#"
   xmlns:rdf="http://www.w3.org/1999/02/22-rdf-syntax-ns#"
   xmlns:svg="http://www.w3.org/2000/svg"
   xmlns="http://www.w3.org/2000/svg"
   xmlns:sodipodi="http://sodipodi.sourceforge.net/DTD/sodipodi-0.dtd"
   xmlns:inkscape="http://www.inkscape.org/namespaces/inkscape"
   width="16"
   height="16"
   viewBox="0 0 16 16"
   id="svg30571"
   version="1.1"
   inkscape:version="0.92pre1 unknown"
   sodipodi:docname="gimp-quit.svg">
  <defs
     id="defs30573" />
  <sodipodi:namedview
     id="base"
     pagecolor="#76ffff"
     bordercolor="#666666"
     borderopacity="1"
     inkscape:pageopacity="0"
     inkscape:pageshadow="2"
     inkscape:zoom="22.627417"
     inkscape:cx="-3.1642318"
     inkscape:cy="5.0676358"
     inkscape:document-units="px"
     inkscape:current-layer="layer1"
     showgrid="true"
     units="px"
     inkscape:snap-page="true"
     inkscape:snap-bbox="true"
     inkscape:bbox-paths="true"
     inkscape:bbox-nodes="true"
     inkscape:snap-bbox-edge-midpoints="true"
     inkscape:snap-bbox-midpoints="true"
     inkscape:object-paths="true"
     inkscape:snap-intersection-paths="true"
     inkscape:object-nodes="true"
     inkscape:snap-smooth-nodes="true"
     inkscape:snap-midpoints="true"
     inkscape:snap-object-midpoints="true"
     inkscape:snap-center="true"
     inkscape:snap-text-baseline="true"
     showborder="false"
     inkscape:window-width="1920"
     inkscape:window-height="1016"
     inkscape:window-x="0"
     inkscape:window-y="27"
     inkscape:window-maximized="1"
     inkscape:snap-global="false"
     showguides="false">
    <inkscape:grid
       type="xygrid"
       id="grid4237" />
  </sodipodi:namedview>
  <metadata
     id="metadata30576">
    <rdf:RDF>
      <cc:Work
         rdf:about="">
        <dc:format>
          image/svg+xml
        </dc:format>
        <dc:type
           rdf:resource="http://purl.org/dc/dcmitype/StillImage" />
        <dc:creator>
          <cc:Agent>
            <dc:title>Klaus Staedtler       </dc:title>
          </cc:Agent>
        </dc:creator>
        <dc:title></dc:title>
      </cc:Work>
    </rdf:RDF>
  </metadata>
  <g
     inkscape:label="Layer 1"
     inkscape:groupmode="layer"
     id="layer1"
     transform="translate(0,-1036.3622)">
    <g
       id="g4246">
      <g
         id="g4239">
        <g
           id="g7082"
           transform="matrix(1.70995,-0.0450243,0.04544797,1.7064456,17.314404,-697.44834)">
          <path
             style="color:#000000;font-style:normal;font-variant:normal;font-weight:normal;font-stretch:normal;font-size:medium;line-height:normal;font-family:sans-serif;text-indent:0;text-align:start;text-decoration:none;text-decoration-line:none;text-decoration-style:solid;text-decoration-color:#000000;letter-spacing:normal;word-spacing:normal;text-transform:none;writing-mode:lr-tb;direction:ltr;baseline-shift:baseline;text-anchor:start;white-space:normal;clip-rule:nonzero;display:inline;overflow:visible;visibility:visible;opacity:1;isolation:auto;mix-blend-mode:normal;color-interpolation:sRGB;color-interpolation-filters:linearRGB;solid-color:#000000;solid-opacity:1;fill:#000000;fill-opacity:1;fill-rule:nonzero;stroke:none;stroke-width:0.26079771;stroke-linecap:round;stroke-linejoin:miter;stroke-miterlimit:4;stroke-dasharray:none;stroke-dashoffset:0;stroke-opacity:1;color-rendering:auto;image-rendering:auto;shape-rendering:auto;text-rendering:auto;enable-background:accumulate"
             d="M 2.5859375 1 C 1.1413751 1.039061 0.45432169 2.8449876 1.5136719 3.8476562 L 5.7285156 7.9335938 L 5.828125 8.03125 L 5.796875 8.0625 L 1.5 12.246094 C -0.01372932 13.802694 2.2480915 16.027203 3.7617188 14.470703 L 8.1582031 10.300781 L 12.246094 14.5 C 13.802641 16.013652 16.027252 13.751934 14.470703 12.238281 L 10.425781 7.9726562 L 10.457031 7.9414062 L 14.529297 3.7539062 C 14.840272 3.4431063 15.010617 3.0212375 15 2.5859375 C 14.9612 1.1413375 13.154997 0.45427187 12.152344 1.5136719 L 8.0976562 5.6972656 L 7.9394531 5.5429688 L 3.7539062 1.4707031 C 3.4431841 1.1595556 3.0212069 0.98956361 2.5859375 1 z "
             transform="matrix(0.5844026,0.01541937,-0.01556446,0.58560274,-37.104415,1015.0572)"
             id="path6388-7-7-4-7" />
          <g
             id="g7078" />
        </g>
        <rect
           style="color:#000000;clip-rule:nonzero;display:inline;overflow:visible;visibility:visible;opacity:1;isolation:auto;mix-blend-mode:normal;color-interpolation:sRGB;color-interpolation-filters:linearRGB;solid-color:#000000;solid-opacity:1;fill:none;fill-opacity:1;fill-rule:nonzero;stroke:none;stroke-width:0.4848485;stroke-linecap:round;stroke-linejoin:round;stroke-miterlimit:4;stroke-dasharray:none;stroke-dashoffset:0;stroke-opacity:1;color-rendering:auto;image-rendering:auto;shape-rendering:auto;text-rendering:auto;enable-background:accumulate"
           id="rect3999"
           width="16"
           height="16"
           x="0"
           y="1036.3622" />
      </g>
    </g>
  </g>
</svg>
